Adwaita++/apps/scalable/insync.svg

<svg height="128" width="128" xmlns="http://www.w3.org/2000/svg" xmlns:xlink="http://www.w3.org/1999/xlink">
  <linearGradient id="e" gradientTransform="matrix(1.0015 0 0 .99993 72.09 56.015)" gradientUnits="userSpaceOnUse" x1="43.844" x2="-60" y1="234" y2="234">
    <stop offset="0" stop-color="#d5d3cf"/>
    <stop offset=".038" stop-color="#e3e2df"/>
    <stop offset=".077" stop-color="#c0bfbc"/>
    <stop offset=".923" stop-color="#c0bfbc"/>
    <stop offset=".962" stop-color="#e3e2df"/>
    <stop offset="1" stop-color="#d5d3cf"/>
  </linearGradient>
  <g transform="translate(0 -172)">
    <rect fill="url(#e)" height="48" rx="8" width="104" x="12" y="240"/>
    <path d="m20 10c-4.432 0-8 3.568-8 8v42 42c0 4.432 3.568 8 8 8h44 44c4.432 0 8-3.568 8-8v-42-42c0-4.432-3.568-8-8-8z" fill="#1e87e4" transform="translate(0 172)"/>
    <g transform="translate(3.530221 -.33226)">
      <path d="m78.403373 196.83226c-23.373446 0-42.390623 19.01718-42.390625 42.39063v3.26171h6.521484v-3.26171c.000002-19.84884 16.020304-35.86916 35.869141-35.86915h3.261718v-6.52148zm0 13.04297c-16.169731 0-29.347654 13.17792-29.347656 29.34766v3.26171h6.521484v-3.26171c.000003-12.64513 10.18105-22.82422 22.826172-22.82422h3.261718v-6.52344zm0 13.04492c-8.966016 0-16.304682 7.33671-16.304688 16.30274v3.26171h6.521485v-3.26171c.000003-5.44141 4.341795-9.78125 9.783203-9.78125h3.261718v-6.52149zm1.630859 13.04297a4.891304 4.891304 0 0 0 -4.890625 4.89062 4.891304 4.891304 0 0 0 4.890625 4.89063 4.891304 4.891304 0 0 0 4.892578-4.89063 4.891304 4.891304 0 0 0 -4.892578-4.89062zm-4.890625 16.30469v19.56445h9.783203v-19.56445z" opacity=".1"/>
      <path d="m81.933594 22.5c-23.373446 0-42.390623 19.017175-42.390625 42.390625v3.261719h6.521484v-3.261719c.000002-19.84884 16.020304-35.869151 35.869141-35.869141h3.261718v-6.521484zm0 13.042969c-16.169731 0-29.347654 13.177926-29.347656 29.347656v3.261719h6.521484v-3.261719c.000003-12.64513 10.18105-22.824219 22.826172-22.824219h3.261718v-6.523437zm0 13.044922c-8.966016 0-16.304682 7.336714-16.304688 16.302734v3.261719h6.521485v-3.261719c.000003-5.44141 4.341795-9.78125 9.783203-9.78125h3.261718v-6.521484zm1.630859 13.042968a4.891304 4.891304 0 0 0 -4.890625 4.890625 4.891304 4.891304 0 0 0 4.890625 4.890625 4.891304 4.891304 0 0 0 4.892578-4.890625 4.891304 4.891304 0 0 0 -4.892578-4.890625zm-4.890625 16.304688v19.564453h9.783203v-19.564453z" fill="#fff" transform="translate(-3.530221 172.33226)"/>
    </g>
  </g>
</svg>

<svg xmlns="http://www.w3.org/2000/svg" xmlns:xlink="http://www.w3.org/1999/xlink" width="128" height="128" version="1.0">
 <defs>
  <linearGradient id="a">
   <stop id="stop2" offset="0" stop-color="#68676b"/>
   <stop id="stop4" offset=".8" stop-color="#424048"/>
   <stop id="stop6" offset="1" stop-color="#241f31"/>
  </linearGradient>
  <radialGradient id="d" cx="279.422" cy="446.483" r="224" fx="279.422" fy="446.483" gradientTransform="matrix(1.34416 .0006 -.00062 1.38763 -121.22 -718.103)" gradientUnits="userSpaceOnUse" xlink:href="#a"/>
  <linearGradient id="e" x1="43.844" x2="-60" y1="234" y2="234" gradientTransform="matrix(1.0015 0 0 .99993 72.09 56.015)" gradientUnits="userSpaceOnUse" xlink:href="#b"/>
  <linearGradient id="b">
   <stop id="stop11" offset="0" stop-color="#d5d3cf"/>
   <stop id="stop13" offset=".038" stop-color="#e3e2df"/>
   <stop id="stop15" offset=".077" stop-color="#c0bfbc"/>
   <stop id="stop17" offset=".923" stop-color="#c0bfbc"/>
   <stop id="stop19" offset=".962" stop-color="#e3e2df"/>
   <stop id="stop21" offset="1" stop-color="#d5d3cf"/>
  </linearGradient>
 </defs>
 <g transform="translate(0 -172)">
  <rect fill="url(#e)" width="104" height="48" x="12" y="240" rx="8" ry="8"/>
  <path style="fill:#1e87e4" d="M 20 10 C 15.568 10 12 13.568 12 18 L 12 60 L 12 102 C 12 106.432 15.568 110 20 110 L 64 110 L 108 110 C 112.432 110 116 106.432 116 102 L 116 60 L 116 18 C 116 13.568 112.432 10 108 10 L 20 10 z" transform="translate(0,172)"/>
  <g transform="translate(3.5302209,-0.33226031)">
   <path d="m 78.403373,196.83226 c -23.373446,0 -42.390623,19.01718 -42.390625,42.39063 v 3.26171 h 6.521484 v -3.26171 c 2e-6,-19.84884 16.020304,-35.86916 35.869141,-35.86915 h 3.261718 v -6.52148 z m 0,13.04297 c -16.169731,0 -29.347654,13.17792 -29.347656,29.34766 v 3.26171 h 6.521484 v -3.26171 c 3e-6,-12.64513 10.18105,-22.82422 22.826172,-22.82422 h 3.261718 v -6.52344 z m 0,13.04492 c -8.966016,0 -16.304682,7.33671 -16.304688,16.30274 v 3.26171 h 6.521485 v -3.26171 c 3e-6,-5.44141 4.341795,-9.78125 9.783203,-9.78125 h 3.261718 v -6.52149 z m 1.630859,13.04297 a 4.891304,4.891304 0 0 0 -4.890625,4.89062 4.891304,4.891304 0 0 0 4.890625,4.89063 4.891304,4.891304 0 0 0 4.892578,-4.89063 4.891304,4.891304 0 0 0 -4.892578,-4.89062 z m -4.890625,16.30469 v 19.56445 h 9.783203 v -19.56445 z" style="opacity:0.1"/>
   <path style="fill:#ffffff" d="M 81.933594 22.5 C 58.560148 22.5 39.542971 41.517175 39.542969 64.890625 L 39.542969 68.152344 L 46.064453 68.152344 L 46.064453 64.890625 C 46.064455 45.041785 62.084757 29.021474 81.933594 29.021484 L 85.195312 29.021484 L 85.195312 22.5 L 81.933594 22.5 z M 81.933594 35.542969 C 65.763863 35.542969 52.58594 48.720895 52.585938 64.890625 L 52.585938 68.152344 L 59.107422 68.152344 L 59.107422 64.890625 C 59.107425 52.245495 69.288472 42.066406 81.933594 42.066406 L 85.195312 42.066406 L 85.195312 35.542969 L 81.933594 35.542969 z M 81.933594 48.587891 C 72.967578 48.587891 65.628912 55.924605 65.628906 64.890625 L 65.628906 68.152344 L 72.150391 68.152344 L 72.150391 64.890625 C 72.150394 59.449215 76.492186 55.109375 81.933594 55.109375 L 85.195312 55.109375 L 85.195312 48.587891 L 81.933594 48.587891 z M 83.564453 61.630859 A 4.891304 4.891304 0 0 0 78.673828 66.521484 A 4.891304 4.891304 0 0 0 83.564453 71.412109 A 4.891304 4.891304 0 0 0 88.457031 66.521484 A 4.891304 4.891304 0 0 0 83.564453 61.630859 z M 78.673828 77.935547 L 78.673828 97.5 L 88.457031 97.5 L 88.457031 77.935547 L 78.673828 77.935547 z" transform="translate(-3.5302209,172.33226)"/>
  </g>
 </g>
</svg>
